localPackages/DesignSystem/Sources/DesignSystem/Resources/Assets.xcassets/IconSet/ic-lock-layers.imageset/ic-lock-layers.svg

<svg width="24" height="24" viewBox="0 0 24 24" fill="none" xmlns="http://www.w3.org/2000/svg">
<g id="ic-lock-layers">
<g id="Icon">
<path d="M14.625 11.625C14.625 12.0549 14.3839 12.4285 14.0295 12.6179L14.5202 14.5806C14.5734 14.7937 14.4123 15 14.1927 15H12.8073C12.5877 15 12.4266 14.7937 12.4798 14.5806L12.9705 12.6179C12.6161 12.4285 12.375 12.0549 12.375 11.625C12.375 11.0037 12.8787 10.5 13.5 10.5C14.1213 10.5 14.625 11.0037 14.625 11.625Z" fill="#0F0F0F"/>
<path fill-rule="evenodd" clip-rule="evenodd" d="M9 6V6.02878C8.41168 6.06471 7.99429 6.14546 7.63803 6.32698C7.07354 6.6146 6.6146 7.07354 6.32698 7.63803C6.14268 7.99975 6.06225 8.42448 6.02716 9.02716C5.42449 9.06225 4.99975 9.14267 4.63803 9.32697C4.07354 9.61459 3.6146 10.0735 3.32698 10.638C3 11.2798 3 12.1198 3 13.8V15.78C3 18.1322 3 19.3083 3.45777 20.2068C3.86044 20.997 4.50296 21.6396 5.29324 22.0422C6.19167 22.5 7.36778 22.5 9.72 22.5H13.2C14.8802 22.5 15.7202 22.5 16.362 22.173C16.9265 21.8854 17.3854 21.4265 17.673 20.862C17.8573 20.5002 17.9377 20.0755 17.9728 19.4728C18.5755 19.4377 19.0002 19.3573 19.362 19.173C19.9265 18.8854 20.3854 18.4265 20.673 17.862C21 17.2202 21 16.3802 21 14.7V10.8C21 9.11984 21 8.27976 20.673 7.63803C20.3854 7.07354 19.9265 6.6146 19.362 6.32698C19.0057 6.14546 18.5883 6.06471 18 6.02878V6C18 3.51472 15.9853 1.5 13.5 1.5C11.0147 1.5 9 3.51472 9 6ZM10.5 6H16.5C16.5 4.34315 15.1569 3 13.5 3C11.8431 3 10.5 4.34315 10.5 6ZM8.95175 7.53589C9.37676 7.50117 9.93517 7.5 10.8 7.5H16.2C17.0648 7.5 17.6232 7.50117 18.0482 7.53589C18.4557 7.56918 18.6068 7.6257 18.681 7.66349C18.9632 7.8073 19.1927 8.03677 19.3365 8.31901C19.3743 8.39318 19.4308 8.54426 19.4641 8.95175C19.4988 9.37676 19.5 9.93517 19.5 10.8V14.7C19.5 15.5648 19.4988 16.1232 19.4641 16.5482C19.4308 16.9557 19.3743 17.1068 19.3365 17.181C19.1927 17.4632 18.9632 17.6927 18.681 17.8365C18.6068 17.8743 18.4557 17.9308 18.0482 17.9641C17.6232 17.9988 17.0648 18 16.2 18H10.8C9.93517 18 9.37676 17.9988 8.95175 17.9641C8.54426 17.9308 8.39318 17.8743 8.31901 17.8365C8.03677 17.6927 7.8073 17.4632 7.66349 17.181C7.6257 17.1068 7.56918 16.9557 7.53589 16.5482C7.50117 16.1232 7.5 15.5648 7.5 14.7V10.8C7.5 9.93517 7.50117 9.37676 7.53589 8.95175C7.56918 8.54426 7.6257 8.39318 7.66349 8.31901C7.8073 8.03677 8.03677 7.8073 8.31901 7.66349C8.39318 7.6257 8.54426 7.56918 8.95175 7.53589ZM6.00005 10.5321L5.95175 10.5359C5.54426 10.5692 5.39318 10.6257 5.31901 10.6635C5.03677 10.8073 4.8073 11.0368 4.66349 11.319C4.6257 11.3932 4.56918 11.5443 4.53589 11.9517C4.50117 12.3768 4.5 12.9352 4.5 13.8V15.78C4.5 16.9809 4.50117 17.7913 4.55224 18.4164C4.60188 19.024 4.6911 19.3233 4.79428 19.5258C5.05314 20.0338 5.46619 20.4469 5.97423 20.7057C6.17674 20.8089 6.476 20.8981 7.0836 20.9478C7.7087 20.9988 8.51914 21 9.72 21H13.2C14.0648 21 14.6232 20.9988 15.0482 20.9641C15.4557 20.9308 15.6068 20.8743 15.681 20.8365C15.9632 20.6927 16.1927 20.4632 16.3365 20.181C16.3743 20.1068 16.4308 19.9557 16.4641 19.5482L16.4679 19.4999L10.8 19.5C9.11984 19.5 8.27976 19.5 7.63803 19.173C7.07354 18.8854 6.6146 18.4265 6.32698 17.862C6 17.2202 6 16.3802 6 14.7L6.00005 10.5321Z" fill="#0F0F0F"/>
</g>
</g>
</svg>

<svg xmlns="http://www.w3.org/2000/svg" width="24" height="24" viewBox="0 0 24 24">
  <g class="ic-lock-layers">
    <g class="Icon">
      <path d="M14.625 11.625c0 .43-.241.803-.595.993l.49 1.963a.338.338 0 0 1-.327.419h-1.386a.338.338 0 0 1-.327-.42l.49-1.962a1.125 1.125 0 1 1 1.655-.993Z"/>
      <path fill-rule="evenodd" d="M9 6v.029c-.588.036-1.006.116-1.362.298a3 3 0 0 0-1.311 1.311c-.184.362-.265.786-.3 1.39-.603.034-1.027.115-1.389.299a3 3 0 0 0-1.311 1.311C3 11.28 3 12.12 3 13.8v1.98c0 2.352 0 3.528.458 4.427a4.2 4.2 0 0 0 1.835 1.835c.899.458 2.075.458 4.427.458h3.48c1.68 0 2.52 0 3.162-.327a3 3 0 0 0 1.311-1.311c.184-.362.265-.786.3-1.39.603-.034 1.027-.115 1.389-.299a3 3 0 0 0 1.311-1.311C21 17.22 21 16.38 21 14.7v-3.9c0-1.68 0-2.52-.327-3.162a3 3 0 0 0-1.311-1.311c-.356-.182-.774-.262-1.362-.298V6a4.5 4.5 0 1 0-9 0Zm1.5 0h6a3 3 0 1 0-6 0ZM8.952 7.536C9.377 7.5 9.935 7.5 10.8 7.5h5.4c.865 0 1.423.001 1.848.036.408.033.559.09.633.127a1.5 1.5 0 0 1 .655.656c.038.074.095.225.128.633.035.425.036.983.036 1.848v3.9c0 .865-.001 1.423-.036 1.848-.033.408-.09.559-.127.633a1.5 1.5 0 0 1-.656.655c-.074.038-.225.095-.633.128-.425.035-.983.036-1.848.036h-5.4c-.865 0-1.423-.001-1.848-.036-.408-.033-.559-.09-.633-.127a1.5 1.5 0 0 1-.656-.656c-.037-.074-.094-.225-.127-.633-.035-.425-.036-.983-.036-1.848v-3.9c0-.865.001-1.423.036-1.848.033-.408.09-.559.127-.633a1.5 1.5 0 0 1 .656-.656c.074-.037.225-.094.633-.127ZM6 10.532l-.048.004c-.408.033-.559.09-.633.128a1.5 1.5 0 0 0-.656.655c-.037.074-.094.225-.127.633-.035.425-.036.983-.036 1.848v1.98c0 1.2.001 2.011.052 2.636.05.608.14.907.242 1.11a2.7 2.7 0 0 0 1.18 1.18c.203.103.502.192 1.11.242.625.05 1.435.052 2.636.052h3.48c.865 0 1.423-.001 1.848-.036.408-.033.559-.09.633-.127a1.5 1.5 0 0 0 .656-.656c.037-.074.094-.225.127-.633l.004-.048H10.8c-1.68 0-2.52 0-3.162-.327a3 3 0 0 1-1.311-1.311C6 17.22 6 16.38 6 14.7v-4.168Z"/>
    </g>
  </g>
</svg>
